X: 7
T: Kiss The Maid Behind The Barrel
R: reel
M: 4/4
L: 1/8
K: Gmaj
DG~G2 AG~G2|DG~G2 cAFA|DG~G2 AGFA|defd cAFA|
DG~G2 AG~G2|BG~G2 c2-cA|DG~G2 AGFA|defd cAFA||
dg~g2 ag~g2|dg~g2 agfe|df~f2 af~f2|defd cAFA|
dg~g2 ag~g2|a2ag effg|a2ag effe|defd cAFA||
G2dG BGdG|G2dB cAFA|G2dG Bcde|fdcB cAFA|
G2dG ~G2dG|G2dB cAFA|~G2GA BGcA|d2fd cAFA||
~B2BG ~A2AG|B2Bc dedc|~B2GB ~A2FA|d2fd cAFA:|


Tune 676	Setting 676

